X:1
T:Salute on the Birth of Alexander Bruce
M:C
L:1/8
Q:80
C:Bruce Gandy
S:Piobaireachd
K:HP
{g}e2"dbr"A2{e}A3/2B/2{Gdc}d2 | \
{g}e/2{A}e3/2{A}e2{e}d2{BGdG}B2 | \
{g}e2"dbr"A2{e}A3/2B/2{Gdc}d2 |
{g}e/2{A}e3/2{A}e2{e}d2{GBG}A2{e}G3/2A/2{GdG}B2{e}dB/2{g}A/2{GdG}B2 | \
{e}dB/2{g}G/2{dc}d2{e}d2{GBG}A2|]  | \
{g}e2"dbr"A2{e}A3/2B/2{Gdc}d2 |
{g}e/2{A}e3/2{A}e2{e}d2{GBG}A2{e}G3/2A/2{GdG}B2{e}dB/2{g}A/2{GdG}B2 | \
{e}dB/2{g}G/2{dc}d2{e}d2{BGdG}B2 | \
{e}G3/2A/2{GdG}B2{g}e/2{A}e3/2{A}e2 |
{g}dB/2{g}G/2{dc}d2{e}d2{GBG}A2|]
{g}e2"dbr"A2{e}A3/2B/2{Gdc}d2 | \
{g}e/2{A}e3/2{A}e2{e}d2{GBG}A2 |
{e}G3/2A/2{GdG}B2{e}d/2{G}d3/2{Gdc}d2 | \
{g}e/2{A}e3/2{A}e2{e}d2{GBG}A2|]
